X: 12444
T: Farewell To Ballinahulla
R: jig
M: 6/8
K: Gmajor
|:G3 GAB|dBd g2d|dBG GAB|dBG FGA|
G3 GAB|dBd g2d|Bcd ecA|GAF G2 D:|
|:g3 fed|efg d2 g|gdB GAB|dBG FGA|
[1 g3 fed|efg d2 c|Bcd ecA|GAF GBd:|
[2 B3 cBc|def g2d|Bcd ecA|GAF G2 D||

